Hatter-kde/actions/24/circular-arrow-shape.svg

<svg xmlns="http://www.w3.org/2000/svg" viewBox="0 0 24 24">
  <defs id="defs3051">
    <style type="text/css" id="current-color-scheme">
      .ColorScheme-Text {
        color:#363636;
      }
      </style>
  </defs><g transform="translate(1,1)">
 <path 
     style="fill:currentColor;fill-opacity:1;stroke:none" 
     d="M 9.5996094 4.9003906 C 5.9986094 4.9003906 3.0996094 7.7993901 3.0996094 11.400391 L 3.0996094 12.900391 L 4.0996094 12.900391 L 4.0996094 11.400391 C 4.0996094 8.3533901 6.5526094 5.9003906 9.5996094 5.9003906 C 12.646609 5.9003906 15.099609 8.3533901 15.099609 11.400391 L 15.099609 11.892578 L 15.099609 12.900391 L 15.099609 15.185547 L 12.806641 12.892578 L 12.099609 13.599609 L 15.392578 16.892578 L 15.599609 17.099609 L 15.806641 16.892578 L 19.099609 13.599609 L 18.392578 12.892578 L 16.099609 15.185547 L 16.099609 12.900391 L 16.099609 11.892578 L 16.099609 11.400391 C 16.099609 7.7993901 13.200609 4.9003906 9.5996094 4.9003906 z "
	 class="ColorScheme-Text"
     />
</g></svg>

<?xml version="1.0" encoding="UTF-8"?>
<svg viewBox="0 0 24 24" xmlns="http://www.w3.org/2000/svg">
 <defs id="defs3051">
  <style id="current-color-scheme" type="text/css">.ColorScheme-Text {
        color:#363636;
      }</style>
 </defs>
 <g transform="translate(1,1)">
  <path class="ColorScheme-Text" d="m9.5996 4.9004c-3.601 0-6.5 2.899-6.5 6.5v1.5h1v-1.5c0-3.047 2.453-5.5 5.5-5.5 3.047 0 5.5 2.453 5.5 5.5v0.49219 1.0078 2.2852l-2.293-2.293-0.70703 0.70703 3.5 3.5 3.5-3.5-0.70703-0.70703-2.293 2.293v-2.2852-1.0078-0.49219c0-3.601-2.899-6.5-6.5-6.5z" fill="currentColor"/>
 </g>
</svg>
